X:1
T:Spring
T:Spring
T:Antonio Vivaldi(1678-1741)
T:Arr. Marc Genebraldo
T:Arranged for piano
%%score { 1 | 2 }
L:1/8
Q:1/4=96
M:4/4
K:E
V:1 treble nm="Piano" snm="Pno."
V:2 bass 
V:1
 z!f! e |: gg gf/e/ b3 b/a/ | gg gf/e/ b3 b/a/ | ga/b/ ag fdB!p!e | gg gf/e/ b3 b/a/ | %5
 gg gf/e/ b3 b/a/ | ga/b/ ag fdB!f!e | ba/g/ ab c' b2 e | ba/g/ ab c' b2 e | c' b2 a gf/e/ f2 | %10
 e2 z!p! e ba/g/ ab | c' b2 e ba/g/ ab | c' b2 e c' b2 a | gf/e/ f2 (eG/A/ B/A/B/A/ | %14
 G/A/G/A/ B/A/B/A/ G/A/G/A/ B/A/B/A/ | G/A/G/A/ B/c/B/c/ d/e/d/e/ f/e/f/e/ | %16
 d/e/d/e/ f/e/f/e/ d/e/d/e/ f/g/f/g/ | a/g/a/g/ f/a/g/f/ gf/e/ d/c/B/A/ | %18
 G/A/G/A/ B/A/B/A/ G/A/G/A/ B/A/B/A/ | G/A/G/A/ B/A/B/A/) G2 z g |{/g} a4 g4 | f4 g4 | a4 g4 | %23
 f2 z!f! B fe/d/ ef | g f2 B fe/d/ ef | g f2 B g f2 e | dc/B/ c2 B2 z e :| gg gf/e/ b3 b/a/ | %28
 gg gf/e/ b3 b/a/ | ga/b/ ag fdB!p!e | gg gf/e/ b3 b/a/ | gg gf/e/ b3 b/a/ | ga/b/ ag fdB!f!e | %33
 ba/g/ ab c' b2 e | ba/g/ ab c' b2!>(! e!>)! | c' b2 a gf/e/ !tenuto!f2 |!p! !fermata![ee']8 |] %37
V:2
 z E, |: [E,,E,]2 E,2 E,2 E,2 | [E,,E,]2 E,2 E,2 E,2 | E,E,A,,^A,, B,,2 z E, | %4
 [E,,E,]2 E,2 E,2 E,2 | [E,,E,]2 E,2 E,2 E,2 | E,E,A,,^A,, B,,2 z E, | [E,,E,]2 E,2 E,2 E,2 | %8
 [E,,E,]2 E,2 E,2 E,2 | [E,,E,]2 E,B,, E,E,,B,B,, | E,,2 z E, E,2 E,2 | E,2 E,2 E,2 E,2 | %12
 E,2 E,2 E,2 E,B,, | E,E,,B,B,, E,E,E,E, | E,E,E,E, E,E,E,E, | E,E,E,E, B,,B,,B,,B,, | %16
 B,,B,,B,,B,, B,,B,,B,,B,, | B,,B,,B,,B,, E,E,E,E, | E,E,E,E, E,E,E,E, | %19
 E,E,E,E, (E,/B,,/E,/B,,/ E,/B,,/E,/B,,/ | %20
 D,/B,,/D,/B,,/ D,/B,,/D,/B,,/ E,/B,,/E,/B,,/ E,/B,,/E,/B,,/ | %21
 F,/B,,/F,/B,,/ F,/B,,/F,/B,,/ E,/B,,/E,/B,,/ E,/B,,/E,/B,,/ | %22
 D,/B,,/D,/B,,/ D,/B,,/D,/B,,/ E,/B,,/E,/B,,/ E,/B,,/E,/B,,/) | B,,2 z [B,,B,] [B,,B,]2 [B,,B,]2 | %24
 [B,,B,]2 [B,,B,]2 [B,,B,]2 [B,,B,]2 | [B,,B,]2 [B,,B,]2 [B,,B,]2 B,,F, | B,B,,F,F,, B,,2 z E, :| %27
 [E,,E,]2 E,2 E,2 E,2 | [E,,E,]2 E,2 E,2 E,2 | E,E,A,,^A,, B,,2 z E, | [E,,E,]2 E,2 E,2 E,2 | %31
 [E,,E,]2 E,2 E,2 E,2 | E,E,A,,^A,, B,,2 z E, | [E,,E,]2 E,2 E,2 E,2 | [E,,E,]2 E,2 E,2 E,2 | %35
 [E,,E,]2 E,B,, E,E,,B,!tenuto!B,, | !fermata![E,,E,]8 |] %37

